/* XPM */
static char * elarvon_xpm[] = {
"128 128 2 1",
"  c None",
"X c #B58A45",
"                                                                                                                                ",
"                                                                                                                                ",
"                                                                                                                                ",
"                                                                                                                                ",
"                                                                                                                                ",
"                                                                                                                                ",
"                                                                                                                                ",
"                                                        XXXXXXXXXXXXXXXX                                                        ",
"                                                   XXXXXXXXXXXXXXXXXXXXXXXX                                                     ",
"                                               XXXXXXXXXXXXXXXXXXXXXXXXXXXX                                                     ",
"                                            XXXXXXXXXXXXXXXXXXXXXXXXXXXXXXX                                                     ",
"                                          XXXXXXXXXXXXXXX              XXX                                                      ",
"                                       XXXXXXXXXXXXX                                                                            ",
"                                     XXXXXXXXXXX                                                                                ",
"                                    XXXXXXXXX                                                                                   ",
"                                  XXXXXXXXX                                                                                     ",
"                                XXXXXXXX                                                                                        ",
"                               XXXXXXXX                                                                                         ",
"                              XXXXXXX                                                                                           ",
"                            XXXXXXX                                                                                             ",
"                           XXXXXXX                                                                                              ",
"                          XXXXXX                                                                                                ",
"                         XXXXXX                                                                                                 ",
"                        XXXXXX                                                                                                  ",
"                       XXXXXX                                                                                                   ",
"                      XXXXXX                                                                                                    ",
"                     XXXXXX                                                                                                     ",
"                    XXXXXX                                                                                                      ",
"                   XXXXXX                                                                                                       ",
"                   XXXXX                                                                                                        ",
"                  XXXXX                                                                                                         ",
"                 XXXXX                                                                                                          ",
"                XXXXX                                                                                                           ",
"                XXXXX                                                                                                           ",
"               XXXXX                                                                                                            ",
"               XXXX                                                                                                             ",
"              XXXXX                                                                                                             ",
"             XXXXX                         XXXXXXXXXXXXXXXXXXXXXXXXXXXXXXXXXXXXXXXX                                             ",
"             XXXXX                         XXXXXXXXXXXXXXXXXXXXXXXXXXXXXXXXXXXXXXX                                              ",
"            XXXXX                          XXXXXXXXXXXXXXXXXXXXXXXXXXXXXXXXXXXXXXX               X                              ",
"            XXXX                          XXXXXXXXXXXXXXXXXXXXXXXXXXXXXXXXXXXXXXX               XX                              ",
"            XXXX                          XXXXXXXXXXXXXXXXXXXXXXXXXXXXXXXXXXXXXX                X                               ",
"           XXXXX                         XXXXXXXXXXXXXXXXXXXXXXXXXXXXXXXXXXXXXXX               XX                               ",
"           XXXX                          XXXXXXXXXXXXXXXXXXXXXXXXXXXXXXXXXXXXXX               XX                                ",
"          XXXXX                          XXXXXXXXXXXXXXXXXXXXXXXXXXXXXXXXXXXXX               XXX                                ",
"          XXXX                          XXXXXXXXXXXXXXXXXXXXXXXXXXXXXXXXXXXXXX              XXXX                                ",
"          XXXX                          XXXXXXXXXXXXXXXXXXXXXXXXXXXXXXXXXXXXX              XXXX                                 ",
"         XXXXX                          XXXXXXXXXXXXXXXXXXXXXXXXXXXXXXXXXXXX              XXXXX                                 ",
"         XXXX                          XXXXXXXXXXXXXXXXXXXXXXXXXXXXXXXXXXXXX             XXXXX                                  ",
"         XXXX                          XXXXXXXXXXXXXXXXXXXXXXXXXXXXXXXXXXXX             XXXXXX                                  ",
"         XXXX                          XXXXXXXXXXXXXXXXXXXXXXXXXXXXXXXXXXX             XXXXXX                                   ",
"        XXXXX                         XXXXXXXXXXXXXXXXXXXXXXXXXXXXXXXXXXXX            XXXXXXX                                   ",
"        XXXX                          XXXXXXXXXXXXXXXXXXXXXXXXXXXXXXXXXXX            XXXXXXXX                                   ",
"        XXXX                          XXXXX                                         XXXXXXXX                                    ",
"        XXXX                         XXXXX                                          XXXXXXXX                                    ",
"        XXXX                         XXXXX                                         XXXXXXXX                                     ",
"       XXXXX                         XXXX                                         XXXXXXXXX                                     ",
"       XXXX                         XXXXX                                        XXXXXXXXX                                      ",
"       XXXX                         XXXX                                        XXXXXXXXXX                                      ",
"       XXXX                        XXXXX                                       XXXXXXXXXXX                                      ",
"       XXXX                        XXXX                                       XXXXXXXXXXX                                       ",
"       XXXX                        XXXXXXXXXXXXXXXXXXXXXXXXXXXXXXXX          XXXXXXXXXXXX                                       ",
"       XXXX                       XXXXXXXXXXXXXXXXXXXXXXXXXXXXXXXXX         XXXXXXXXXXXX                              XX        ",
"       XXXX                       XXXXXXXXXXXXXXXXXXXXXXXXXXXXXXXXX        XXXXXXXXXXXXX                             XXXX       ",
"       XXXX                       XXXXXXXXXXXXXXXXXXXXXXXXXXXXXXXX        XXXXXXXXXXXXX                              XXXX       ",
"       XXXX                      XXXXXXXXXXXXXXXXXXXXXXXXXXXXXXXX        XXXXXXXXXXXXXX                              XXXX       ",
"       XXXX                      XXXXXXXXXXXXXXXXXXXXXXXXXXXXXXXX       XXXXXXXXXXXXXXX                              XXXX       ",
"       XXXX                      XXXXXXXXXXXXXXXXXXXXXXXXXXXXXXX        XXXXXXXXXXXXXX                               XXXX       ",
"       XXXX                     XXXXXXXXXXXXXXXXXXXXXXXXXXXXXXX        XXXXXXXXXXXXXXX                               XXXX       ",
"       XXXX                     XXXXXXXXXXXXXXXXXXXXXXXXXXXXXXX       XXXXXXXXXXXXXXX                                XXXX       ",
"       XXXX                     XXXXXXXXXXXXXXXXXXXXXXXXXXXXXX       XXXXXXXXXXXXXXXX                                XXXX       ",
"       XXXXX                   XXXXXXXXXXXXXXXXXXXXXXXXXXXXXX       XXXXXXXXXXXXXXXX                                XXXXX       ",
"        XXXX                   XXXXXXXXXXXXXXXXXXXXXXXXXXXXXX                   XXXX                                XXXX        ",
"        XXXX                  XXXXXXXXXXXXXXXXXXXXXXXXXXXXXX                   XXXX                                 XXXX        ",
"        XXXX                  XXXXXXXXXXXXXXXXXXXXXXXXXXXXX                   XXXXX                                 XXXX        ",
"        XXXX                  XXXXXXXXXXXXXXXXXXXXXXXXXXXXXX                 XXXXXX                                 XXXX        ",
"        XXXXX                 XXXXXXXXXXXXXXXXXXXXXXXXXXXXXXX               XXXXXX                                 XXXXX        ",
"         XXXX                             XXXXXXXXXXXXXXXXXXXX             XXXXXX                                  XXXX         ",
"         XXXX                              XXXXXXXXXXXXXXXXXXXX           XXXX                                     XXXX         ",
"         XXXX                               XXXXXXXXXXXXXXXXXXX          XXX                                       XXXX         ",
"         XXXXX                               XXXXXXXXXXXXXXXXXXX         X                                        XXXXX         ",
"          XXXX                                XXXXXXXXXXXXXXXXXXX       X                                         XXXX          ",
"          XXXX                                 XXXXXXXXXXXXXXXXXXX     X                                          XXXX          ",
"          XXXXX                                XXXXXXXXXXXXXXXXXXX    X                                          XXXXX          ",
"           XXXX                                 XXXXXXXXXXXXXXXXXXX  X                                           XXXX           ",
"           XXXXX                                 XXXXXXXXXXXXXXXXXXXXX                                          XXXXX           ",
"            XXXX                                  XXXXXXXXXXXXXXXXXXX                                           XXXX            ",
"            XXXX                                   XXXXXXXXXXXXXXXXX                                            XXXX            ",
"            XXXXX                                   XXXXXXXXXXXXXXX                                            XXXXX            ",
"             XXXXX                                  XXXXXXXXXXXXXXX                                           XXXXX             ",
"             XXXXX                                   XXXXXXXXXXXXX                                            XXXXX             ",
"              XXXXX                                   XXXXXXXXXXX                                            XXXXX              ",
"               XXXX                                    XXXXXXXXXX                                            XXXX               ",
"               XXXXX                                    XXXXXXXX                                            XXXXX               ",
"                XXXXX                                    XXXXXX                                            XXXXX                ",
"                XXXXX                                    XXXXX                                             XXXXX                ",
"                 XXXXX                                    XXXX                                            XXXXX                 ",
"                  XXXXX                                    XX                                            XXXXX                  ",
"                   XXXXX                                                                                XXXXX                   ",
"                   XXXXXX                                                                              XXXXXX                   ",
"                    XXXXXX                                                                            XXXXXX                    ",
"                     XXXXXX                                                                          XXXXXX                     ",
"                      XXXXXX                                                                        XXXXXX                      ",
"                       XXXXXX                                                                      XXXXXX                       ",
"                        XXXXXX                                                                    XXXXXX                        ",
"                         XXXXXX                                                                  XXXXXX                         ",
"                          XXXXXX                                                                XXXXXX                          ",
"                           XXXXXXX                                                            XXXXXXX                           ",
"                            XXXXXXX                                                          XXXXXXX                            ",
"                              XXXXXXX                                                      XXXXXXX                              ",
"                               XXXXXXXX                                                  XXXXXXXX                               ",
"                                XXXXXXXXX                                               XXXXXXXX                                ",
"                                  XXXXXXXXX                                          XXXXXXXXX                                  ",
"                                    XXXXXXXXX                                      XXXXXXXXX                                    ",
"                                     XXXXXXXXXXX                                XXXXXXXXXXX                                     ",
"                                       XXXXXXXXXXXXX                        XXXXXXXXXXXXX                                       ",
"                                          XXXXXXXXXXXXXXX              XXXXXXXXXXXXXXX                                          ",
"                                            XXXXXXXXXXXXXXXXXXXXXXXXXXXXXXXXXXXXXXXX                                            ",
"                                               XXXXXXXXXXXXXXXXXXXXXXXXXXXXXXXXXX                                               ",
"                                                   XXXXXXXXXXXXXXXXXXXXXXXXXX                                                   ",
"                                                        XXXXXXXXXXXXXXXX                                                        ",
"                                                                                                                                ",
"                                                                                                                                ",
"                                                                                                                                ",
"                                                                                                                                ",
"                                                                                                                                ",
"                                                                                                                                ",
"                                                                                                                                "
};
