/* XPM */
static char * elarvon_xpm[] = {
"32 32 2 1",
"  c None",
"X c #B58A45",
"                                ",
"                                ",
"           XXXXXXXX             ",
"         XXX                    ",
"       XXX                      ",
"      XX                        ",
"     XX                         ",
"    XX                          ",
"    X                           ",
"   XX      XXXXXXXXXX           ",
"   X      XXXXXXXXXX            ",
"  XX      XXXXXXXXX    X        ",
"  X       XXXXXXXXX   XX        ",
"  X      XX          XX         ",
"  X      X          XXX         ",
"  X      XXXXXXXX  XXX          ",
"  X     XXXXXXXX  XXXX       X  ",
"  X     XXXXXXXX XXXX        X  ",
"  X    XXXXXXXX    XX        X  ",
"  X        XXXXX   X         X  ",
"  XX       XXXXX            XX  ",
"   X        XXXXX           X   ",
"   XX        XXXX          XX   ",
"    X         XX           X    ",
"    XX                    XX    ",
"     XX                  XX     ",
"      XX                XX      ",
"       XXX            XXX       ",
"         XXX        XXX         ",
"           XXXXXXXXXX           ",
"                                ",
"                                "
};
