/* XPM */
static char * elarvon_xpm[] = {
"256 256 2 1",
"  c None",
"X c #B58A45",
"                                                                                                                                                                                                                                                                ",
"                                                                                                                                                                                                                                                                ",
"                                                                                                                                                                                                                                                                ",
"                                                                                                                                                                                                                                                                ",
"                                                                                                                                                                                                                                                                ",
"                                                                                                                                                                                                                                                                ",
"                                                                                                                                                                                                                                                                ",
"                                                                                                                                                                                                                                                                ",
"                                                                                                                                                                                                                                                                ",
"                                                                                                                                                                                                                                                                ",
"                                                                                                                                                                                                                                                                ",
"                                                                                                                                                                                                                                                                ",
"                                                                                                                                                                                                                                                                ",
"                                                                                                                                                                                                                                                                ",
"                                                                                                                     XXXXXXXXXXXXXXXXXXXXXX                                                                                                                     ",
"                                                                                                             XXXXXXXXXXXXXXXXXXXXXXXXXXXXXXXXXXXXXX                                                                                                             ",
"                                                                                                        XXXXXXXXXXXXXXXXXXXXXXXXXXXXXXXXXXXXXXXXXXXXX                                                                                                           ",
"                                                                                                    XXXXXXXXXXXXXXXXXXXXXXXXXXXXXXXXXXXXXXXXXXXXXXXXXX                                                                                                          ",
"                                                                                                XXXXXXXXXXXXXXXXXXXXXXXXXXXXXXXXXXXXXXXXXXXXXXXXXXXXXXX                                                                                                         ",
"                                                                                             XXXXXXXXXXXXXXXXXXXXXXXXXXXXXXXXXXXXXXXXXXXXXXXXXXXXXXXXXX                                                                                                         ",
"                                                                                          XXXXXXXXXXXXXXXXXXXXXXXXXXXXXXXXXXXXXXXXXXXXXXXXXXXXXXXXXXXXX                                                                                                         ",
"                                                                                       XXXXXXXXXXXXXXXXXXXXXXXXXXXXXXXXXXXXXXXXXXXXXXXXXXXXXXXXXXXXXXX                                                                                                          ",
"                                                                                     XXXXXXXXXXXXXXXXXXXXXXXXXXXXXXXX                      XXXXXXXXXX                                                                                                           ",
"                                                                                  XXXXXXXXXXXXXXXXXXXXXXXXXXXX                                                                                                                                                  ",
"                                                                                XXXXXXXXXXXXXXXXXXXXXXXXX                                                                                                                                                       ",
"                                                                              XXXXXXXXXXXXXXXXXXXXXXX                                                                                                                                                           ",
"                                                                            XXXXXXXXXXXXXXXXXXXXX                                                                                                                                                               ",
"                                                                          XXXXXXXXXXXXXXXXXXXX                                                                                                                                                                  ",
"                                                                        XXXXXXXXXXXXXXXXXXX                                                                                                                                                                     ",
"                                                                       XXXXXXXXXXXXXXXXXX                                                                                                                                                                       ",
"                                                                     XXXXXXXXXXXXXXXXX                                                                                                                                                                          ",
"                                                                   XXXXXXXXXXXXXXXXX                                                                                                                                                                            ",
"                                                                  XXXXXXXXXXXXXXXX                                                                                                                                                                              ",
"                                                                XXXXXXXXXXXXXXXX                                                                                                                                                                                ",
"                                                               XXXXXXXXXXXXXXX                                                                                                                                                                                  ",
"                                                             XXXXXXXXXXXXXXX                                                                                                                                                                                    ",
"                                                            XXXXXXXXXXXXXX                                                                                                                                                                                      ",
"                                                           XXXXXXXXXXXXXX                                                                                                                                                                                       ",
"                                                         XXXXXXXXXXXXXX                                                                                                                                                                                         ",
"                                                        XXXXXXXXXXXXX                                                                                                                                                                                           ",
"                                                       XXXXXXXXXXXXX                                                                                                                                                                                            ",
"                                                      XXXXXXXXXXXXX                                                                                                                                                                                             ",
"                                                     XXXXXXXXXXXX                                                                                                                                                                                               ",
"                                                   XXXXXXXXXXXXX                                                                                                                                                                                                ",
"                                                  XXXXXXXXXXXXX                                                                                                                                                                                                 ",
"                                                 XXXXXXXXXXXX                                                                                                                                                                                                   ",
"                                                XXXXXXXXXXXX                                                                                                                                                                                                    ",
"                                               XXXXXXXXXXXX                                                                                                                                                                                                     ",
"                                              XXXXXXXXXXXX                                                                                                                                                                                                      ",
"                                             XXXXXXXXXXXX                                                                                                                                                                                                       ",
"                                            XXXXXXXXXXX                                                                                                                                                                                                         ",
"                                           XXXXXXXXXXX                                                                                                                                                                                                          ",
"                                           XXXXXXXXXX                                                                                                                                                                                                           ",
"                                          XXXXXXXXXX                                                                                                                                                                                                            ",
"                                         XXXXXXXXXX                                                                                                                                                                                                             ",
"                                        XXXXXXXXXX                                                                                                                                                                                                              ",
"                                       XXXXXXXXXXX                                                                                                                                                                                                              ",
"                                      XXXXXXXXXXX                                                                                                                                                                                                               ",
"                                      XXXXXXXXXX                                                                                                                                                                                                                ",
"                                     XXXXXXXXXX                                                                                                                                                                                                                 ",
"                                    XXXXXXXXXX                                                                                                                                                                                                                  ",
"                                   XXXXXXXXXX                                                                                                                                                                                                                   ",
"                                   XXXXXXXXXX                                                                                                                                                                                                                   ",
"                                  XXXXXXXXXX                                                                                                                                                                                                                    ",
"                                 XXXXXXXXXX                                                                                                                                                                                                                     ",
"                                 XXXXXXXXX                                                                                                                                                                                                                      ",
"                                XXXXXXXXXX                                                                                                                                                                                                                      ",
"                               XXXXXXXXXX                                                                                                                                                                                                                       ",
"                               XXXXXXXXX                                                                                                                                                                                                                        ",
"                              XXXXXXXXX                                                                                                                                                                                                                         ",
"                              XXXXXXXXX                                                                                                                                                                                                                         ",
"                             XXXXXXXXX                                                                                                                                                                                                                          ",
"                            XXXXXXXXXX                                                                                                                                                                                                                          ",
"                            XXXXXXXXX                                                                                                                                                                                                                           ",
"                           XXXXXXXXX                                                   XXXXXXXXXXXXXXXXXXXXXXXXXXXXXXXXXXXXXXXXXXXXXXXXXXXXXXXXXXXXXXXXXXXXXXXXXXXXXXX                                                                                          ",
"                           XXXXXXXXX                                                  XXXXXXXXXXXXXXXXXXXXXXXXXXXXXXXXXXXXXXXXXXXXXXXXXXXXXXXXXXXXXXXXXXXXXXXXXXXXXXXX                                                                                          ",
"                          XXXXXXXXX                                                   XXXXXXXXXXXXXXXXXXXXXXXXXXXXXXXXXXXXXXXXXXXXXXXXXXXXXXXXXXXXXXXXXXXXXXXXXXXXXXX                                                                                           ",
"                          XXXXXXXXX                                                   XXXXXXXXXXXXXXXXXXXXXXXXXXXXXXXXXXXXXXXXXXXXXXXXXXXXXXXXXXXXXXXXXXXXXXXXXXXXXX                                                                                            ",
"                         XXXXXXXXX                                                   XXXXXXXXXXXXXXXXXXXXXXXXXXXXXXXXXXXXXXXXXXXXXXXXXXXXXXXXXXXXXXXXXXXXXXXXXXXXXXX                               XX                                                           ",
"                         XXXXXXXXX                                                   XXXXXXXXXXXXXXXXXXXXXXXXXXXXXXXXXXXXXXXXXXXXXXXXXXXXXXXXXXXXXXXXXXXXXXXXXXXXXX                               XX                                                            ",
"                        XXXXXXXXX                                                    XXXXXXXXXXXXXXXXXXXXXXXXXXXXXXXXXXXXXXXXXXXXXXXXXXXXXXXXXXXXXXXXXXXXXXXXXXXXX                                XX                                                            ",
"                        XXXXXXXXX                                                   XXXXXXXXXXXXXXXXXXXXXXXXXXXXXXXXXXXXXXXXXXXXXXXXXXXXXXXXXXXXXXXXXXXXXXXXXXXXXX                               XX                                                             ",
"                       XXXXXXXXX                                                    XXXXXXXXXXXXXXXXXXXXXXXXXXXXXXXXXXXXXXXXXXXXXXXXXXXXXXXXXXXXXXXXXXXXXXXXXXXXX                               XXX                                                             ",
"                       XXXXXXXXX                                                    XXXXXXXXXXXXXXXXXXXXXXXXXXXXXXXXXXXXXXXXXXXXXXXXXXXXXXXXXXXXXXXXXXXXXXXXXXXX                               XXX                                                              ",
"                       XXXXXXXX                                                    XXXXXXXXXXXXXXXXXXXXXXXXXXXXXXXXXXXXXXXXXXXXXXXXXXXXXXXXXXXXXXXXXXXXXXXXXXXXX                              XXXX                                                              ",
"                      XXXXXXXXX                                                    XXXXXXXXXXXXXXXXXXXXXXXXXXXXXXXXXXXXXXXXXXXXXXXXXXXXXXXXXXXXXXXXXXXXXXXXXXXX                              XXXX                                                               ",
"                      XXXXXXXX                                                     XXXXXXXXXXXXXXXXXXXXXXXXXXXXXXXXXXXXXXXXXXXXXXXXXXXXXXXXXXXXXXXXXXXXXXXXXXX                              XXXXX                                                               ",
"                     XXXXXXXXX                                                    XXXXXXXXXXXXXXXXXXXXXXXXXXXXXXXXXXXXXXXXXXXXXXXXXXXXXXXXXXXXXXXXXXXXXXXXXXXX                             XXXXXX                                                               ",
"                     XXXXXXXXX                                                    XXXXXXXXXXXXXXXXXXXXXXXXXXXXXXXXXXXXXXXXXXXXXXXXXXXXXXXXXXXXXXXXXXXXXXXXXXX                             XXXXXX                                                                ",
"                     XXXXXXXX                                                    XXXXXXXXXXXXXXXXXXXXXXXXXXXXXXXXXXXXXXXXXXXXXXXXXXXXXXXXXXXXXXXXXXXXXXXXXXX                             XXXXXXX                                                                ",
"                    XXXXXXXXX                                                    XXXXXXXXXXXXXXXXXXXXXXXXXXXXXXXXXXXXXXXXXXXXXXXXXXXXXXXXXXXXXXXXXXXXXXXXXXX                            XXXXXXX                                                                 ",
"                    XXXXXXXX                                                     XXXXXXXXXXXXXXXXXXXXXXXXXXXXXXXXXXXXXXXXXXXXXXXXXXXXXXXXXXXXXXXXXXXXXXXXXX                            XXXXXXXX                                                                 ",
"                    XXXXXXXX                                                    XXXXXXXXXXXXXXXXXXXXXXXXXXXXXXXXXXXXXXXXXXXXXXXXXXXXXXXXXXXXXXXXXXXXXXXXXX                            XXXXXXXX                                                                  ",
"                   XXXXXXXXX                                                    XXXXXXXXXXXXXXXXXXXXXXXXXXXXXXXXXXXXXXXXXXXXXXXXXXXXXXXXXXXXXXXXXXXXXXXXXX                            XXXXXXXX                                                                  ",
"                   XXXXXXXX                                                     XXXXXXXXXXXXXXXXXXXXXXXXXXXXXXXXXXXXXXXXXXXXXXXXXXXXXXXXXXXXXXXXXXXXXXXXX                            XXXXXXXXX                                                                  ",
"                   XXXXXXXX                                                    XXXXXXXXXXXXXXXXXXXXXXXXXXXXXXXXXXXXXXXXXXXXXXXXXXXXXXXXXXXXXXXXXXXXXXXXX                            XXXXXXXXX                                                                   ",
"                  XXXXXXXXX                                                    XXXXXXXXXXXXXXXXXXXXXXXXXXXXXXXXXXXXXXXXXXXXXXXXXXXXXXXXXXXXXXXXXXXXXXXXX                           XXXXXXXXXX                                                                   ",
"                  XXXXXXXX                                                     XXXXXXXXXXXXXXXXXXXXXXXXXXXXXXXXXXXXXXXXXXXXXXXXXXXXXXXXXXXXXXXXXXXXXXXX                           XXXXXXXXXX                                                                    ",
"                  XXXXXXXX                                                    XXXXXXXXXXXXXXXXXXXXXXXXXXXXXXXXXXXXXXXXXXXXXXXXXXXXXXXXXXXXXXXXXXXXXXXX                           XXXXXXXXXXX                                                                    ",
"                  XXXXXXXX                                                    XXXXXXXXXXXXXXXXXXXXXXXXXXXXXXXXXXXXXXXXXXXXXXXXXXXXXXXXXXXXXXXXXXXXXXXX                          XXXXXXXXXXX                                                                     ",
"                 XXXXXXXXX                                                    XXXXXXXXXXXXXXXXXXXXXXXXXXXXXXXXXXXXXXXXXXXXXXXXXXXXXXXXXXXXXXXXXXXXXXX                          XXXXXXXXXXXX                                                                     ",
"                 XXXXXXXX                                                    XXXXXXXXXXXXXXXXXXXXXXXXXXXXXXXXXXXXXXXXXXXXXXXXXXXXXXXXXXXXXXXXXXXXXXX                          XXXXXXXXXXXXX                                                                     ",
"                 XXXXXXXX                                                    XXXXXXXXXXXXXXXXXXXXXXXXXXXXXXXXXXXXXXXXXXXXXXXXXXXXXXXXXXXXXXXXXXXXXXX                         XXXXXXXXXXXXX                                                                      ",
"                 XXXXXXXX                                                    XXXXXXXXXXXXXXXXXXXXXXXXXXXXXXXXXXXXXXXXXXXXXXXXXXXXXXXXXXXXXXXXXXXXXX                         XXXXXXXXXXXXXX                                                                      ",
"                XXXXXXXXX                                                   XXXXXXXXXXXXXXXXXXXXXXXXXXXXXXXXXXXXXXXXXXXXXXXXXXXXXXXXXXXXXXXXXXXXXX                         XXXXXXXXXXXXXX                                                                       ",
"                XXXXXXXX                                                    XXXXXXXXXXX                                                                                   XXXXXXXXXXXXXXX                                                                       ",
"                XXXXXXXX                                                   XXXXXXXXXXX                                                                                    XXXXXXXXXXXXXX                                                                        ",
"                XXXXXXXX                                                   XXXXXXXXXXX                                                                                   XXXXXXXXXXXXXXX                                                                        ",
"                XXXXXXXX                                                   XXXXXXXXXX                                                                                   XXXXXXXXXXXXXXXX                                                                        ",
"               XXXXXXXXX                                                  XXXXXXXXXXX                                                                                  XXXXXXXXXXXXXXXX                                                                         ",
"               XXXXXXXX                                                   XXXXXXXXXX                                                                                  XXXXXXXXXXXXXXXXX                                                                         ",
"               XXXXXXXX                                                   XXXXXXXXX                                                                                  XXXXXXXXXXXXXXXXX                                                                          ",
"               XXXXXXXX                                                  XXXXXXXXXX                                                                                 XXXXXXXXXXXXXXXXXX                                                                          ",
"               XXXXXXXX                                                  XXXXXXXXX                                                                                 XXXXXXXXXXXXXXXXXX                                                                           ",
"               XXXXXXXX                                                  XXXXXXXXX                                                                                XXXXXXXXXXXXXXXXXXX                                                                           ",
"               XXXXXXXX                                                 XXXXXXXXX                                                                                XXXXXXXXXXXXXXXXXXX                                                                            ",
"               XXXXXXXX                                                 XXXXXXXXX                                                                               XXXXXXXXXXXXXXXXXXXX                                                                            ",
"              XXXXXXXX                                                  XXXXXXXX                                                                               XXXXXXXXXXXXXXXXXXXXX                                                                            ",
"              XXXXXXXX                                                 XXXXXXXX                                                                               XXXXXXXXXXXXXXXXXXXXX                                                                             ",
"              XXXXXXXX                                                 XXXXXXXX                                                                               XXXXXXXXXXXXXXXXXXXXX                                                                             ",
"              XXXXXXXX                                                XXXXXXXX                                                                               XXXXXXXXXXXXXXXXXXXXX                                                                              ",
"              XXXXXXXX                                                XXXXXXXX                                                                              XXXXXXXXXXXXXXXXXXXXXX                                                                              ",
"              XXXXXXXX                                                XXXXXXX                                                                              XXXXXXXXXXXXXXXXXXXXXX                                                                               ",
"              XXXXXXXX                                               XXXXXXXXXXXXXXXXXXXXXXXXXXXXXXXXXXXXXXXXXXXXXXXXXXXXXXXXXXXXXXXXXX                   XXXXXXXXXXXXXXXXXXXXXXX                                                                               ",
"              XXXXXXXX                                               XXXXXXXXXXXXXXXXXXXXXXXXXXXXXXXXXXXXXXXXXXXXXXXXXXXXXXXXXXXXXXXXXX                  XXXXXXXXXXXXXXXXXXXXXXXX                                                           XXXX                ",
"              XXXXXXXX                                               XXXXXXXXXXXXXXXXXXXXXXXXXXXXXXXXXXXXXXXXXXXXXXXXXXXXXXXXXXXXXXXXX                  XXXXXXXXXXXXXXXXXXXXXXXX                                                           XXXXXX               ",
"              XXXXXXXX                                              XXXXXXXXXXXXXXXXXXXXXXXXXXXXXXXXXXXXXXXXXXXXXXXXXXXXXXXXXXXXXXXXX                  XXXXXXXXXXXXXXXXXXXXXXXXX                                                          XXXXXXXX              ",
"              XXXXXXXX                                              XXXXXXXXXXXXXXXXXXXXXXXXXXXXXXXXXXXXXXXXXXXXXXXXXXXXXXXXXXXXXXXXX                 XXXXXXXXXXXXXXXXXXXXXXXXX                                                           XXXXXXXX              ",
"              XXXXXXXX                                              XXXXXXXXXXXXXXXXXXXXXXXXXXXXXXXXXXXXXXXXXXXXXXXXXXXXXXXXXXXXXXXX                 XXXXXXXXXXXXXXXXXXXXXXXXXX                                                           XXXXXXXX              ",
"              XXXXXXXX                                             XXXXXXXXXXXXXXXXXXXXXXXXXXXXXXXXXXXXXXXXXXXXXXXXXXXXXXXXXXXXXXXX                 XXXXXXXXXXXXXXXXXXXXXXXXXX                                                            XXXXXXXX              ",
"              XXXXXXXX                                             XXXXXXXXXXXXXXXXXXXXXXXXXXXXXXXXXXXXXXXXXXXXXXXXXXXXXXXXXXXXXXXX                XXXXXXXXXXXXXXXXXXXXXXXXXXX                                                            XXXXXXXX              ",
"              XXXXXXXX                                             XXXXXXXXXXXXXXXXXXXXXXXXXXXXXXXXXXXXXXXXXXXXXXXXXXXXXXXXXXXXXXX                XXXXXXXXXXXXXXXXXXXXXXXXXXXX                                                            XXXXXXXX              ",
"              XXXXXXXX                                            XXXXXXXXXXXXXXXXXXXXXXXXXXXXXXXXXXXXXXXXXXXXXXXXXXXXXXXXXXXXXXX                 XXXXXXXXXXXXXXXXXXXXXXXXXXX                                                             XXXXXXXX              ",
"              XXXXXXXX                                            XXXXXXXXXXXXXXXXXXXXXXXXXXXXXXXXXXXXXXXXXXXXXXXXXXXXXXXXXXXXXXX                XXXXXXXXXXXXXXXXXXXXXXXXXXXX                                                             XXXXXXXX              ",
"              XXXXXXXX                                            XXXXXXXXXXXXXXXXXXXXXXXXXXXXXXXXXXXXXXXXXXXXXXXXXXXXXXXXXXXXXX                XXXXXXXXXXXXXXXXXXXXXXXXXXXX                                                              XXXXXXXX              ",
"              XXXXXXXX                                           XXXXXXXXXXXXXXXXXXXXXXXXXXXXXXXXXXXXXXXXXXXXXXXXXXXXXXXXXXXXXX                XXXXXXXXXXXXXXXXXXXXXXXXXXXXX                                                              XXXXXXXX              ",
"              XXXXXXXX                                           XXXXXXXXXXXXXXXXXXXXXXXXXXXXXXXXXXXXXXXXXXXXXXXXXXXXXXXXXXXXXX               XXXXXXXXXXXXXXXXXXXXXXXXXXXXX                                                               XXXXXXXX              ",
"              XXXXXXXX                                          XXXXXXXXXXXXXXXXXXXXXXXXXXXXXXXXXXXXXXXXXXXXXXXXXXXXXXXXXXXXXX               XXXXXXXXXXXXXXXXXXXXXXXXXXXXXX                                                               XXXXXXXX              ",
"              XXXXXXXX                                          XXXXXXXXXXXXXXXXXXXXXXXXXXXXXXXXXXXXXXXXXXXXXXXXXXXXXXXXXXXXX               XXXXXXXXXXXXXXXXXXXXXXXXXXXXXXX                                                               XXXXXXXX              ",
"               XXXXXXXX                                         XXXXXXXXXXXXXXXXXXXXXXXXXXXXXXXXXXXXXXXXXXXXXXXXXXXXXXXXXXXXX              XXXXXXXXXXXXXXXXXXXXXXXXXXXXXXX                                                               XXXXXXXX               ",
"               XXXXXXXX                                        XXXXXXXXXXXXXXXXXXXXXXXXXXXXXXXXXXXXXXXXXXXXXXXXXXXXXXXXXXXXX              XXXXXXXXXXXXXXXXXXXXXXXXXXXXXXXX                                                               XXXXXXXX               ",
"               XXXXXXXX                                        XXXXXXXXXXXXXXXXXXXXXXXXXXXXXXXXXXXXXXXXXXXXXXXXXXXXXXXXXXXX              XXXXXXXXXXXXXXXXXXXXXXXXXXXXXXXX                                                                XXXXXXXX               ",
"               XXXXXXXX                                        XXXXXXXXXXXXXXXXXXXXXXXXXXXXXXXXXXXXXXXXXXXXXXXXXXXXXXXXXXXX             XXXXXXXXXXXXXXXXXXXXXXXXXXXXXXXXX                                                                XXXXXXXX               ",
"               XXXXXXXX                                       XXXXXXXXXXXXXXXXXXXXXXXXXXXXXXXXXXXXXXXXXXXXXXXXXXXXXXXXXXXX              X                     X XXXXXXXX                                                                 XXXXXXXX               ",
"               XXXXXXXX                                       XXXXXXXXXXXXXXXXXXXXXXXXXXXXXXXXXXXXXXXXXXXXXXXXXXXXXXXXXXX                                       XXXXXXXX                                                                 XXXXXXXX               ",
"               XXXXXXXX                                       XXXXXXXXXXXXXXXXXXXXXXXXXXXXXXXXXXXXXXXXXXXXXXXXXXXXXXXXXXX                                      XXXXXXXX                                                                  XXXXXXXX               ",
"               XXXXXXXXX                                     XXXXXXXXXXXXXXXXXXXXXXXXXXXXXXXXXXXXXXXXXXXXXXXXXXXXXXXXXXX                                      XXXXXXXXX                                                                 XXXXXXXXX               ",
"                XXXXXXXX                                     XXXXXXXXXXXXXXXXXXXXXXXXXXXXXXXXXXXXXXXXXXXXXXXXXXXXXXXXXX                                      XXXXXXXXXX                                                                 XXXXXXXX                ",
"                XXXXXXXX                                     XXXXXXXXXXXXXXXXXXXXXXXXXXXXXXXXXXXXXXXXXXXXXXXXXXXXXXXXXX                                     XXXXXXXXXX                                                                  XXXXXXXX                ",
"                XXXXXXXX                                    XXXXXXXXXXXXXXXXXXXXXXXXXXXXXXXXXXXXXXXXXXXXXXXXXXXXXXXXXX                                      XXXXXXXXXX                                                                  XXXXXXXX                ",
"                XXXXXXXX                                    XXXXXXXXXXXXXXXXXXXXXXXXXXXXXXXXXXXXXXXXXXXXXXXXXXXXXXXXX                                      XXXXXXXXXX                                                                   XXXXXXXX                ",
"                XXXXXXXXX                                   XXXXXXXXXXXXXXXXXXXXXXXXXXXXXXXXXXXXXXXXXXXXXXXXXXXXXXXXXXXXX                                 XXXXXXXXXXX                                                                  XXXXXXXXX                ",
"                 XXXXXXXX                                  XXXXXXXXXXXXXXXXXXXXXXXXXXXXXXXXXXXXXXXXXXXXXXXXXXXXXXXXXXXXXXX                               XXXXXXXXXXX                                                                   XXXXXXXX                 ",
"                 XXXXXXXX                                  XXXXXXXXXXXXXXXXXXXXXXXXXXXXXXXXXXXXXXXXXXXXXXXXXXXXXXXXXXXXXXX                              XXXXXXXXXXXX                                                                   XXXXXXXX                 ",
"                 XXXXXXXX                                                            XXXXXXXXXXXXXXXXXXXXXXXXXXXXXXXXXXXXXX                            XXXXXXXXXXX                                                                     XXXXXXXX                 ",
"                 XXXXXXXXX                                                           XXXXXXXXXXXXXXXXXXXXXXXXXXXXXXXXXXXXXXX                          XXXXXXXXXX                                                                      XXXXXXXXX                 ",
"                  XXXXXXXX                                                            XXXXXXXXXXXXXXXXXXXXXXXXXXXXXXXXXXXXXXX                        XXXXXXXX                                                                         XXXXXXXX                  ",
"                  XXXXXXXX                                                             XXXXXXXXXXXXXXXXXXXXXXXXXXXXXXXXXXXXXX                       XXXXXXX                                                                           XXXXXXXX                  ",
"                  XXXXXXXX                                                              XXXXXXXXXXXXXXXXXXXXXXXXXXXXXXXXXXXXXX                     XXXXXX                                                                             XXXXXXXX                  ",
"                  XXXXXXXXX                                                              XXXXXXXXXXXXXXXXXXXXXXXXXXXXXXXXXXXXXX                   XXXX                                                                               XXXXXXXXX                  ",
"                   XXXXXXXX                                                               XXXXXXXXXXXXXXXXXXXXXXXXXXXXXXXXXXXXXX                  XX                                                                                 XXXXXXXX                   ",
"                   XXXXXXXX                                                               XXXXXXXXXXXXXXXXXXXXXXXXXXXXXXXXXXXXXX                 X                                                                                   XXXXXXXX                   ",
"                   XXXXXXXXX                                                               XXXXXXXXXXXXXXXXXXXXXXXXXXXXXXXXXXXXXX               X                                                                                   XXXXXXXXX                   ",
"                    XXXXXXXX                                                                XXXXXXXXXXXXXXXXXXXXXXXXXXXXXXXXXXXXXX             XX                                                                                   XXXXXXXX                    ",
"                    XXXXXXXX                                                                 XXXXXXXXXXXXXXXXXXXXXXXXXXXXXXXXXXXXXX           XX                                                                                    XXXXXXXX                    ",
"                    XXXXXXXXX                                                                 XXXXXXXXXXXXXXXXXXXXXXXXXXXXXXXXXXXXX          XX                                                                                    XXXXXXXXX                    ",
"                     XXXXXXXX                                                                  XXXXXXXXXXXXXXXXXXXXXXXXXXXXXXXXXXXXX        XX                                                                                     XXXXXXXX                     ",
"                     XXXXXXXXX                                                                 XXXXXXXXXXXXXXXXXXXXXXXXXXXXXXXXXXXXXX      XXX                                                                                    XXXXXXXXX                     ",
"                     XXXXXXXXX                                                                  XXXXXXXXXXXXXXXXXXXXXXXXXXXXXXXXXXXXXX    XXX                                                                                     XXXXXXXXX                     ",
"                      XXXXXXXX                                                                   XXXXXXXXXXXXXXXXXXXXXXXXXXXXXXXXXXXXX   XXX                                                                                      XXXXXXXX                      ",
"                      XXXXXXXXX                                                                   XXXXXXXXXXXXXXXXXXXXXXXXXXXXXXXXXXXXX XXX                                                                                      XXXXXXXXX                      ",
"                       XXXXXXXX                                                                    XXXXXXXXXXXXXXXXXXXXXXXXXXXXXXXXXXXXXXXX                                                                                      XXXXXXXX                       ",
"                       XXXXXXXXX                                                                    XXXXXXXXXXXXXXXXXXXXXXXXXXXXXXXXXXXXXX                                                                                      XXXXXXXXX                       ",
"                       XXXXXXXXX                                                                    XXXXXXXXXXXXXXXXXXXXXXXXXXXXXXXXXXXXX                                                                                       XXXXXXXXX                       ",
"                        XXXXXXXXX                                                                    XXXXXXXXXXXXXXXXXXXXXXXXXXXXXXXXXXXX                                                                                      XXXXXXXXX                        ",
"                        XXXXXXXXX                                                                     XXXXXXXXXXXXXXXXXXXXXXXXXXXXXXXXXX                                                                                       XXXXXXXXX                        ",
"                         XXXXXXXXX                                                                     XXXXXXXXXXXXXXXXXXXXXXXXXXXXXXXX                                                                                       XXXXXXXXX                         ",
"                         XXXXXXXXX                                                                      XXXXXXXXXXXXXXXXXXXXXXXXXXXXXX                                                                                        XXXXXXXXX                         ",
"                          XXXXXXXXX                                                                      XXXXXXXXXXXXXXXXXXXXXXXXXXXXX                                                                                       XXXXXXXXX                          ",
"                          XXXXXXXXX                                                                      XXXXXXXXXXXXXXXXXXXXXXXXXXXX                                                                                        XXXXXXXXX                          ",
"                           XXXXXXXXX                                                                      XXXXXXXXXXXXXXXXXXXXXXXXXX                                                                                        XXXXXXXXX                           ",
"                           XXXXXXXXX                                                                       XXXXXXXXXXXXXXXXXXXXXXXXX                                                                                        XXXXXXXXX                           ",
"                            XXXXXXXXX                                                                       XXXXXXXXXXXXXXXXXXXXXXX                                                                                        XXXXXXXXX                            ",
"                            XXXXXXXXXX                                                                       XXXXXXXXXXXXXXXXXXXXX                                                                                        XXXXXXXXXX                            ",
"                             XXXXXXXXX                                                                        XXXXXXXXXXXXXXXXXXX                                                                                         XXXXXXXXX                             ",
"                              XXXXXXXXX                                                                       XXXXXXXXXXXXXXXXXXX                                                                                        XXXXXXXXX                              ",
"                              XXXXXXXXX                                                                        XXXXXXXXXXXXXXXXX                                                                                         XXXXXXXXX                              ",
"                               XXXXXXXXX                                                                        XXXXXXXXXXXXXXX                                                                                         XXXXXXXXX                               ",
"                               XXXXXXXXXX                                                                        XXXXXXXXXXXXXX                                                                                        XXXXXXXXXX                               ",
"                                XXXXXXXXXX                                                                        XXXXXXXXXXXX                                                                                        XXXXXXXXXX                                ",
"                                 XXXXXXXXX                                                                         XXXXXXXXXX                                                                                         XXXXXXXXX                                 ",
"                                 XXXXXXXXXX                                                                        XXXXXXXXX                                                                                         XXXXXXXXXX                                 ",
"                                  XXXXXXXXXX                                                                        XXXXXXXX                                                                                        XXXXXXXXXX                                  ",
"                                   XXXXXXXXXX                                                                        XXXXXX                                                                                        XXXXXXXXXX                                   ",
"                                   XXXXXXXXXX                                                                         XXXX                                                                                         XXXXXXXXXX                                   ",
"                                    XXXXXXXXXX                                                                         XXX                                                                                        XXXXXXXXXX                                    ",
"                                     XXXXXXXXXX                                                                         X                                                                                        XXXXXXXXXX                                     ",
"                                      XXXXXXXXXX                                                                                                                                                                XXXXXXXXXX                                      ",
"                                      XXXXXXXXXXX                                                                                                                                                              XXXXXXXXXXX                                      ",
"                                       XXXXXXXXXXX                                                                                                                                                            XXXXXXXXXXX                                       ",
"                                        XXXXXXXXXX                                                                                                                                                            XXXXXXXXXX                                        ",
"                                         XXXXXXXXXX                                                                                                                                                          XXXXXXXXXX                                         ",
"                                          XXXXXXXXXX                                                                                                                                                        XXXXXXXXXX                                          ",
"                                           XXXXXXXXXX                                                                                                                                                      XXXXXXXXXX                                           ",
"                                           XXXXXXXXXXX                                                                                                                                                    XXXXXXXXXXX                                           ",
"                                            XXXXXXXXXXX                                                                                                                                                 XXXXXXXXXXXX                                            ",
"                                             XXXXXXXXXXXX                                                                                                                                              XXXXXXXXXXXX                                             ",
"                                              XXXXXXXXXXXX                                                                                                                                            XXXXXXXXXXXX                                              ",
"                                               XXXXXXXXXXXX                                                                                                                                          XXXXXXXXXXXX                                               ",
"                                                XXXXXXXXXXXX                                                                                                                                        XXXXXXXXXXXX                                                ",
"                                                 XXXXXXXXXXXX                                                                                                                                      XXXXXXXXXXXX                                                 ",
"                                                  XXXXXXXXXXXXX                                                                                                                                  XXXXXXXXXXXXX                                                  ",
"                                                   XXXXXXXXXXXXX                                                                                                                                XXXXXXXXXXXXX                                                   ",
"                                                     XXXXXXXXXXXX                                                                                                                              XXXXXXXXXXXX                                                     ",
"                                                      XXXXXXXXXXXXX                                                                                                                          XXXXXXXXXXXXX                                                      ",
"                                                       XXXXXXXXXXXXX                                                                                                                        XXXXXXXXXXXXX                                                       ",
"                                                        XXXXXXXXXXXXX                                                                                                                      XXXXXXXXXXXXX                                                        ",
"                                                         XXXXXXXXXXXXXX                                                                                                                  XXXXXXXXXXXXXX                                                         ",
"                                                           XXXXXXXXXXXXXX                                                                                                              XXXXXXXXXXXXXX                                                           ",
"                                                            XXXXXXXXXXXXXX                                                                                                            XXXXXXXXXXXXXX                                                            ",
"                                                             XXXXXXXXXXXXXXX                                                                                                        XXXXXXXXXXXXXXX                                                             ",
"                                                               XXXXXXXXXXXXXXX                                                                                                    XXXXXXXXXXXXXXX                                                               ",
"                                                                XXXXXXXXXXXXXXXX                                                                                                XXXXXXXXXXXXXXXX                                                                ",
"                                                                  XXXXXXXXXXXXXXXX                                                                                            XXXXXXXXXXXXXXXX                                                                  ",
"                                                                   XXXXXXXXXXXXXXXXX                                                                                        XXXXXXXXXXXXXXXXX                                                                   ",
"                                                                     XXXXXXXXXXXXXXXXX                                                                                    XXXXXXXXXXXXXXXXX                                                                     ",
"                                                                       XXXXXXXXXXXXXXXXXX                                                                              XXXXXXXXXXXXXXXXXX                                                                       ",
"                                                                        XXXXXXXXXXXXXXXXXXX                                                                          XXXXXXXXXXXXXXXXXXX                                                                        ",
"                                                                          XXXXXXXXXXXXXXXXXXXX                                                                    XXXXXXXXXXXXXXXXXXXX                                                                          ",
"                                                                            XXXXXXXXXXXXXXXXXXXXX                                                              XXXXXXXXXXXXXXXXXXXXX                                                                            ",
"                                                                              XXXXXXXXXXXXXXXXXXXXXXX                                                      XXXXXXXXXXXXXXXXXXXXXXX                                                                              ",
"                                                                                XXXXXXXXXXXXXXXXXXXXXXXXX                                              XXXXXXXXXXXXXXXXXXXXXXXXX                                                                                ",
"                                                                                  XXXXXXXXXXXXXXXXXXXXXXXXXXXX                                    XXXXXXXXXXXXXXXXXXXXXXXXXXXX                                                                                  ",
"                                                                                     XXXXXXXXXXXXXXXXXXXXXXXXXXXXXXXX                      XXXXXXXXXXXXXXXXXXXXXXXXXXXXXXXX                                                                                     ",
"                                                                                       XXXXXXXXXXXXXXXXXXXXXXXXXXXXXXXXXXXXXXXXXXXXXXXXXXXXXXXXXXXXXXXXXXXXXXXXXXXXXXXXXX                                                                                       ",
"                                                                                          XXXXXXXXXXXXXXXXXXXXXXXXXXXXXXXXXXXXXXXXXXXXXXXXXXXXXXXXXXXXXXXXXXXXXXXXXXXX                                                                                          ",
"                                                                                             XXXXXXXXXXXXXXXXXXXXXXXXXXXXXXXXXXXXXXXXXXXXXXXXXXXXXXXXXXXXXXXXXXXXXX                                                                                             ",
"                                                                                                XXXXXXXXXXXXXXXXXXXXXXXXXXXXXXXXXXXXXXXXXXXXXXXXXXXXXXXXXXXXXXXX                                                                                                ",
"                                                                                                    XXXXXXXXXXXXXXXXXXXXXXXXXXXXXXXXXXXXXXXXXXXXXXXXXXXXXXXX                                                                                                    ",
"                                                                                                        XXXXXXXXXXXXXXXXXXXXXXXXXXXXXXXXXXXXXXXXXXXXXXXX                                                                                                        ",
"                                                                                                             XXXXXXXXXXXXXXXXXXXXXXXXXXXXXXXXXXXXXX                                                                                                             ",
"                                                                                                                     XXXXXXXXXXXXXXXXXXXXXX                                                                                                                     ",
"                                                                                                                                                                                                                                                                ",
"                                                                                                                                                                                                                                                                ",
"                                                                                                                                                                                                                                                                ",
"                                                                                                                                                                                                                                                                ",
"                                                                                                                                                                                                                                                                ",
"                                                                                                                                                                                                                                                                ",
"                                                                                                                                                                                                                                                                ",
"                                                                                                                                                                                                                                                                ",
"                                                                                                                                                                                                                                                                ",
"                                                                                                                                                                                                                                                                ",
"                                                                                                                                                                                                                                                                ",
"                                                                                                                                                                                                                                                                ",
"                                                                                                                                                                                                                                                                ",
"                                                                                                                                                                                                                                                                "
};
