/* XPM */
static char * elarvon_xpm[] = {
"64 64 2 1",
"  c None",
"X c #B58A45",
"                                                                ",
"                                                                ",
"                                                                ",
"                              XXXX                              ",
"                        XXXXXXXXXXXXXX                          ",
"                     XXXXXXXXXXXXXXXXX                          ",
"                   XXXXXX                                       ",
"                 XXXXX                                          ",
"                XXXX                                            ",
"              XXXX                                              ",
"             XXXX                                               ",
"            XXX                                                 ",
"           XXX                                                  ",
"          XXX                                                   ",
"         XXX                                                    ",
"         XX                                                     ",
"        XXX                                                     ",
"       XXX                                                      ",
"       XX             XXXXXXXXXXXXXXXXXXX                       ",
"      XXX            XXXXXXXXXXXXXXXXXXXX                       ",
"      XX             XXXXXXXXXXXXXXXXXXX        X               ",
"     XXX             XXXXXXXXXXXXXXXXXXX       X                ",
"     XX             XXXXXXXXXXXXXXXXXXX       XX                ",
"     XX             XXXXXXXXXXXXXXXXXX       XXX                ",
"    XXX             XXXXXXXXXXXXXXXXXX      XXX                 ",
"    XX             XXXXXXXXXXXXXXXXXX      XXXX                 ",
"    XX             XXX                    XXXX                  ",
"    XX            XXX                    XXXXX                  ",
"    XX            XXX                    XXXX                   ",
"    XX            XX                    XXXXX                   ",
"   XXX           XXX                   XXXXXX                   ",
"   XXX           XXXXXXXXXXXXXXXXX    XXXXXX               X    ",
"   XXX           XXXXXXXXXXXXXXXX    XXXXXXX              XXX   ",
"   XXX          XXXXXXXXXXXXXXXX    XXXXXXX               XXX   ",
"    XX          XXXXXXXXXXXXXXXX   XXXXXXXX               XX    ",
"    XX          XXXXXXXXXXXXXXX   XXXXXXXX                XX    ",
"    XX         XXXXXXXXXXXXXXX          XX                XX    ",
"    XX         XXXXXXXXXXXXXXX         XX                 XX    ",
"    XX         XXXXXXXXXXXXXXXX       XXX                 XX    ",
"    XXX               XXXXXXXXXX     XX                  XXX    ",
"     XX                XXXXXXXXX                         XX     ",
"     XX                XXXXXXXXXX  X                     XX     ",
"     XXX                XXXXXXXXXXX                     XXX     ",
"      XX                 XXXXXXXXX                      XX      ",
"      XXX                 XXXXXXXX                     XXX      ",
"       XX                  XXXXXX                      XX       ",
"       XXX                  XXXX                      XXX       ",
"        XXX                 XXX                      XXX        ",
"         XX                  XX                      XX         ",
"         XXX                                        XXX         ",
"          XXX                                      XXX          ",
"           XXX                                    XXX           ",
"            XXX                                  XXX            ",
"             XXXX                              XXXX             ",
"              XXXX                            XXXX              ",
"                XXXX                        XXXX                ",
"                 XXXXX                    XXXXX                 ",
"                   XXXXXX              XXXXXX                   ",
"                     XXXXXXXXXXXXXXXXXXXXXX                     ",
"                        XXXXXXXXXXXXXXXX                        ",
"                              XXXX                              ",
"                                                                ",
"                                                                ",
"                                                                "
};
